X:111
T:Kinrara, a Strathspey
C:William Marshall
S:Hamilton Complete Repository
M:4/4
L:1/8
Q:1/4=120
K:D
d   |D>d   d>e d>BA>F  |   D<d d(e/f/) d2 Ef/e/|Dda>f   b>a     d'>b|a<fTe>f d2 d       :|
f/g/|a>ba<f    d>fA<d  |{c}B>ATG>F     E2 Ef/g/|a>ba>(f a/c'/c' d')f|gfgb   Tb2 a3/f//g//|
    (a>f) .d.f a>(f df)|   B<ee>d  {de}f2 eE/D/|D>da>f Tb>a  {a}d'>b|a<fe>f  d2 d       :|

